build/img/logo.svg

<svg width="96" height="29" viewBox="0 0 96 29" fill="none" xmlns="http://www.w3.org/2000/svg">
<path d="M1.54 25.88H1.6C1.656 25.88 1.708 25.856 1.756 25.808C1.804 25.76 1.844 25.704 1.876 25.64C1.916 25.576 1.944 25.508 1.96 25.436C1.976 25.356 1.984 25.284 1.984 25.22V18.836C1.984 18.78 1.976 18.716 1.96 18.644C1.944 18.572 1.916 18.504 1.876 18.44C1.844 18.368 1.8 18.312 1.744 18.272C1.696 18.224 1.64 18.2 1.576 18.2H1.516V18.08H3.484C4.228 18.08 4.808 18.244 5.224 18.572C5.648 18.9 5.86 19.336 5.86 19.88C5.86 20.112 5.82 20.32 5.74 20.504C5.66 20.688 5.556 20.852 5.428 20.996C5.308 21.14 5.176 21.264 5.032 21.368C4.888 21.464 4.752 21.544 4.624 21.608C4.96 21.672 5.24 21.78 5.464 21.932C5.688 22.084 5.868 22.26 6.004 22.46C6.148 22.652 6.248 22.86 6.304 23.084C6.36 23.308 6.388 23.528 6.388 23.744C6.388 24.16 6.312 24.512 6.16 24.8C6.008 25.08 5.804 25.312 5.548 25.496C5.3 25.672 5.012 25.8 4.684 25.88C4.364 25.96 4.032 26 3.688 26H1.54V25.88ZM5.572 23.816C5.508 23.2 5.3 22.724 4.948 22.388C4.596 22.052 4.1 21.884 3.46 21.884H2.788V25.604H3.484C4.132 25.604 4.64 25.46 5.008 25.172C5.384 24.876 5.572 24.468 5.572 23.948V23.816ZM5.08 19.988C5.056 19.524 4.892 19.156 4.588 18.884C4.292 18.612 3.892 18.476 3.388 18.476H2.788V21.5H3.412C3.748 21.5 4.02 21.456 4.228 21.368C4.444 21.28 4.616 21.168 4.744 21.032C4.872 20.888 4.96 20.732 5.008 20.564C5.056 20.396 5.08 20.232 5.08 20.072V19.988ZM8.13109 25.88H8.19109C8.25509 25.88 8.31109 25.86 8.35909 25.82C8.40709 25.772 8.44709 25.716 8.47909 25.652C8.51909 25.588 8.54709 25.52 8.56309 25.448C8.58709 25.376 8.59909 25.308 8.59909 25.244V18.824C8.59909 18.768 8.58709 18.704 8.56309 18.632C8.54709 18.56 8.51909 18.492 8.47909 18.428C8.44709 18.364 8.40709 18.312 8.35909 18.272C8.31109 18.224 8.25509 18.2 8.19109 18.2H8.13109V18.08H12.7511V19.196H12.6311C12.6151 19.012 12.5431 18.852 12.4151 18.716C12.2871 18.572 12.0871 18.5 11.8151 18.5H9.40309V21.536H11.3951C11.5791 21.536 11.7311 21.48 11.8511 21.368C11.9791 21.256 12.0431 21.124 12.0431 20.972H12.1631V22.472H12.0431C12.0431 22.328 11.9831 22.204 11.8631 22.1C11.7431 21.996 11.5871 21.944 11.3951 21.944H9.40309V25.58H12.0311C12.1831 25.58 12.3151 25.544 12.4271 25.472C12.5391 25.4 12.6311 25.316 12.7031 25.22C12.7831 25.116 12.8391 25.008 12.8711 24.896C12.9111 24.776 12.9311 24.676 12.9311 24.596H13.0511V26H8.13109V25.88ZM18.5009 18.392C17.9089 18.392 17.3929 18.5 16.9529 18.716C16.5209 18.924 16.1609 19.2 15.8729 19.544C15.5849 19.88 15.3689 20.26 15.2249 20.684C15.0889 21.108 15.0209 21.528 15.0209 21.944C15.0209 22.416 15.1129 22.88 15.2969 23.336C15.4809 23.784 15.7329 24.184 16.0529 24.536C16.3809 24.88 16.7609 25.16 17.1929 25.376C17.6249 25.584 18.0929 25.688 18.5969 25.688C18.7409 25.688 18.9089 25.672 19.1009 25.64C19.3009 25.608 19.4969 25.548 19.6889 25.46C19.8809 25.364 20.0569 25.232 20.2169 25.064C20.3849 24.896 20.5129 24.676 20.6009 24.404H20.7209V25.736C20.6009 25.736 20.4729 25.752 20.3369 25.784C20.2089 25.816 20.0649 25.852 19.9049 25.892C19.6969 25.948 19.4649 26 19.2089 26.048C18.9609 26.096 18.6969 26.12 18.4169 26.12C17.7209 26.12 17.1089 26 16.5809 25.76C16.0529 25.52 15.6129 25.208 15.2609 24.824C14.9089 24.44 14.6449 24.008 14.4689 23.528C14.2929 23.04 14.2049 22.548 14.2049 22.052C14.2049 21.556 14.2929 21.064 14.4689 20.576C14.6449 20.088 14.9129 19.652 15.2729 19.268C15.6329 18.876 16.0849 18.56 16.6289 18.32C17.1729 18.08 17.8129 17.96 18.5489 17.96C18.8129 17.96 19.0489 17.984 19.2569 18.032C19.4729 18.08 19.6649 18.128 19.8329 18.176C19.9529 18.216 20.0609 18.248 20.1569 18.272C20.2609 18.288 20.3609 18.296 20.4569 18.296V19.628H20.3369C20.2889 19.38 20.2009 19.176 20.0729 19.016C19.9449 18.848 19.7929 18.72 19.6169 18.632C19.4489 18.544 19.2649 18.484 19.0649 18.452C18.8729 18.412 18.6849 18.392 18.5009 18.392ZM27.2614 25.88H27.3214C27.3774 25.88 27.4294 25.86 27.4774 25.82C27.5254 25.772 27.5654 25.716 27.5974 25.652C27.6374 25.58 27.6654 25.508 27.6814 25.436C27.6974 25.356 27.7054 25.284 27.7054 25.22V21.956H23.8654V25.22C23.8654 25.284 23.8734 25.356 23.8894 25.436C23.9054 25.508 23.9294 25.576 23.9614 25.64C23.9934 25.704 24.0294 25.76 24.0694 25.808C24.1174 25.856 24.1734 25.88 24.2374 25.88H24.2974V26H22.6174V25.88H22.6774C22.7334 25.88 22.7854 25.86 22.8334 25.82C22.8814 25.772 22.9214 25.716 22.9534 25.652C22.9934 25.58 23.0214 25.508 23.0374 25.436C23.0534 25.356 23.0614 25.284 23.0614 25.22V18.824C23.0614 18.768 23.0534 18.704 23.0374 18.632C23.0214 18.56 22.9974 18.492 22.9654 18.428C22.9334 18.364 22.8934 18.312 22.8454 18.272C22.7974 18.224 22.7414 18.2 22.6774 18.2H22.6174V18.08H24.2974V18.2H24.2374C24.1734 18.2 24.1174 18.224 24.0694 18.272C24.0214 18.312 23.9814 18.364 23.9494 18.428C23.9254 18.492 23.9054 18.56 23.8894 18.632C23.8734 18.704 23.8654 18.768 23.8654 18.824V21.536H27.7054V18.824C27.7054 18.768 27.6974 18.704 27.6814 18.632C27.6654 18.56 27.6414 18.492 27.6094 18.428C27.5774 18.364 27.5374 18.312 27.4894 18.272C27.4414 18.224 27.3854 18.2 27.3214 18.2H27.2614V18.08H28.9414V18.2H28.8814C28.8174 18.2 28.7614 18.224 28.7134 18.272C28.6654 18.312 28.6254 18.364 28.5934 18.428C28.5694 18.492 28.5494 18.56 28.5334 18.632C28.5174 18.704 28.5094 18.768 28.5094 18.824V25.22C28.5094 25.284 28.5174 25.356 28.5334 25.436C28.5574 25.508 28.5854 25.576 28.6174 25.64C28.6494 25.704 28.6854 25.76 28.7254 25.808C28.7734 25.856 28.8254 25.88 28.8814 25.88H28.9414V26H27.2614V25.88ZM35.2423 25.88H35.3023C35.4943 25.88 35.5903 25.792 35.5903 25.616C35.5903 25.552 35.5783 25.484 35.5543 25.412L34.4743 22.496H32.3743L31.3303 25.364C31.3063 25.428 31.2943 25.488 31.2943 25.544C31.2943 25.648 31.3223 25.732 31.3783 25.796C31.4343 25.852 31.4943 25.88 31.5583 25.88H31.6183V26H30.2863V25.88H30.3463C30.4503 25.88 30.5503 25.82 30.6463 25.7C30.7503 25.572 30.8343 25.424 30.8983 25.256L33.6463 17.936L36.3343 25.184C36.3903 25.344 36.4663 25.5 36.5623 25.652C36.6663 25.804 36.7983 25.88 36.9583 25.88H37.0183V26H35.2423V25.88ZM32.4943 22.088H34.3423L33.4183 19.58L32.4943 22.088ZM42.2936 25.88H42.3536C42.4096 25.88 42.4616 25.856 42.5096 25.808C42.5576 25.76 42.5976 25.704 42.6296 25.64C42.6696 25.576 42.6976 25.508 42.7136 25.436C42.7296 25.356 42.7376 25.284 42.7376 25.22V18.836C42.7376 18.78 42.7296 18.716 42.7136 18.644C42.6976 18.572 42.6696 18.504 42.6296 18.44C42.5976 18.368 42.5536 18.312 42.4976 18.272C42.4496 18.224 42.3936 18.2 42.3296 18.2H42.2696V18.08H44.2376C44.9816 18.08 45.5616 18.244 45.9776 18.572C46.4016 18.9 46.6136 19.336 46.6136 19.88C46.6136 20.112 46.5736 20.32 46.4936 20.504C46.4136 20.688 46.3096 20.852 46.1816 20.996C46.0616 21.14 45.9296 21.264 45.7856 21.368C45.6416 21.464 45.5056 21.544 45.3776 21.608C45.7136 21.672 45.9936 21.78 46.2176 21.932C46.4416 22.084 46.6216 22.26 46.7576 22.46C46.9016 22.652 47.0016 22.86 47.0576 23.084C47.1136 23.308 47.1416 23.528 47.1416 23.744C47.1416 24.16 47.0656 24.512 46.9136 24.8C46.7616 25.08 46.5576 25.312 46.3016 25.496C46.0536 25.672 45.7656 25.8 45.4376 25.88C45.1176 25.96 44.7856 26 44.4416 26H42.2936V25.88ZM46.3256 23.816C46.2616 23.2 46.0536 22.724 45.7016 22.388C45.3496 22.052 44.8536 21.884 44.2136 21.884H43.5416V25.604H44.2376C44.8856 25.604 45.3936 25.46 45.7616 25.172C46.1376 24.876 46.3256 24.468 46.3256 23.948V23.816ZM45.8336 19.988C45.8096 19.524 45.6456 19.156 45.3416 18.884C45.0456 18.612 44.6456 18.476 44.1416 18.476H43.5416V21.5H44.1656C44.5016 21.5 44.7736 21.456 44.9816 21.368C45.1976 21.28 45.3696 21.168 45.4976 21.032C45.6256 20.888 45.7136 20.732 45.7616 20.564C45.8096 20.396 45.8336 20.232 45.8336 20.072V19.988ZM52.6868 18.392C52.0948 18.392 51.5788 18.5 51.1388 18.716C50.7068 18.924 50.3468 19.2 50.0588 19.544C49.7708 19.88 49.5548 20.26 49.4108 20.684C49.2748 21.108 49.2068 21.528 49.2068 21.944C49.2068 22.416 49.2988 22.88 49.4828 23.336C49.6668 23.784 49.9188 24.184 50.2388 24.536C50.5668 24.88 50.9468 25.16 51.3788 25.376C51.8108 25.584 52.2788 25.688 52.7828 25.688C52.9268 25.688 53.0948 25.672 53.2868 25.64C53.4868 25.608 53.6828 25.548 53.8748 25.46C54.0668 25.364 54.2428 25.232 54.4028 25.064C54.5708 24.896 54.6988 24.676 54.7868 24.404H54.9068V25.736C54.7868 25.736 54.6588 25.752 54.5228 25.784C54.3948 25.816 54.2508 25.852 54.0908 25.892C53.8828 25.948 53.6508 26 53.3948 26.048C53.1468 26.096 52.8828 26.12 52.6028 26.12C51.9068 26.12 51.2948 26 50.7668 25.76C50.2388 25.52 49.7988 25.208 49.4468 24.824C49.0948 24.44 48.8308 24.008 48.6548 23.528C48.4788 23.04 48.3908 22.548 48.3908 22.052C48.3908 21.556 48.4788 21.064 48.6548 20.576C48.8308 20.088 49.0988 19.652 49.4588 19.268C49.8188 18.876 50.2708 18.56 50.8148 18.32C51.3588 18.08 51.9988 17.96 52.7348 17.96C52.9988 17.96 53.2348 17.984 53.4428 18.032C53.6588 18.08 53.8508 18.128 54.0188 18.176C54.1388 18.216 54.2468 18.248 54.3428 18.272C54.4468 18.288 54.5468 18.296 54.6428 18.296V19.628H54.5228C54.4748 19.38 54.3868 19.176 54.2588 19.016C54.1308 18.848 53.9788 18.72 53.8028 18.632C53.6348 18.544 53.4508 18.484 53.2508 18.452C53.0588 18.412 52.8708 18.392 52.6868 18.392ZM56.6594 25.88H56.7194C56.7834 25.88 56.8394 25.86 56.8874 25.82C56.9354 25.772 56.9754 25.716 57.0074 25.652C57.0474 25.588 57.0754 25.52 57.0914 25.448C57.1154 25.376 57.1274 25.308 57.1274 25.244V18.824C57.1274 18.768 57.1154 18.704 57.0914 18.632C57.0754 18.56 57.0474 18.492 57.0074 18.428C56.9754 18.364 56.9354 18.312 56.8874 18.272C56.8394 18.224 56.7834 18.2 56.7194 18.2H56.6594V18.08H61.2794V19.196H61.1594C61.1434 19.012 61.0714 18.852 60.9434 18.716C60.8154 18.572 60.6154 18.5 60.3434 18.5H57.9314V21.536H59.9234C60.1074 21.536 60.2594 21.48 60.3794 21.368C60.5074 21.256 60.5714 21.124 60.5714 20.972H60.6914V22.472H60.5714C60.5714 22.328 60.5114 22.204 60.3914 22.1C60.2714 21.996 60.1154 21.944 59.9234 21.944H57.9314V25.58H60.5594C60.7114 25.58 60.8434 25.544 60.9554 25.472C61.0674 25.4 61.1594 25.316 61.2314 25.22C61.3114 25.116 61.3674 25.008 61.3994 24.896C61.4394 24.776 61.4594 24.676 61.4594 24.596H61.5794V26H56.6594V25.88ZM64.8716 25.88H64.9316V26H63.2036V25.88H63.2636C63.3276 25.88 63.3836 25.86 63.4316 25.82C63.4796 25.772 63.5196 25.716 63.5516 25.652C63.5916 25.588 63.6196 25.52 63.6356 25.448C63.6516 25.376 63.6596 25.308 63.6596 25.244V18.824C63.6596 18.768 63.6516 18.704 63.6356 18.632C63.6196 18.56 63.5916 18.492 63.5516 18.428C63.5196 18.364 63.4796 18.312 63.4316 18.272C63.3836 18.224 63.3276 18.2 63.2636 18.2H63.2036V18.08H67.8236V19.352H67.7036C67.7036 19.064 67.6396 18.852 67.5116 18.716C67.3916 18.572 67.1996 18.5 66.9356 18.5H64.4756V25.244C64.4756 25.308 64.4836 25.376 64.4996 25.448C64.5156 25.52 64.5396 25.588 64.5716 25.652C64.6116 25.716 64.6556 25.772 64.7036 25.82C64.7516 25.86 64.8076 25.88 64.8716 25.88ZM74.5731 25.58V27.08H74.4531C74.4451 26.976 74.4171 26.86 74.3691 26.732C74.3211 26.604 74.2531 26.484 74.1651 26.372C74.0851 26.268 73.9891 26.18 73.8771 26.108C73.7651 26.036 73.6411 26 73.5051 26H67.9731C67.8371 26 67.7131 26.036 67.6011 26.108C67.4891 26.188 67.3891 26.28 67.3011 26.384C67.2211 26.496 67.1531 26.616 67.0971 26.744C67.0491 26.872 67.0211 26.984 67.0131 27.08H66.8931V25.58H67.4211C67.6771 25.58 67.8571 25.432 67.9611 25.136L70.7211 17.9L73.5051 25.1C73.5611 25.22 73.6371 25.332 73.7331 25.436C73.8291 25.532 73.9411 25.58 74.0691 25.58H74.5731ZM68.2251 25.58H72.8451L70.5291 19.616L68.2251 25.58ZM80.8526 25.88H80.9126C81.1046 25.88 81.2006 25.792 81.2006 25.616C81.2006 25.552 81.1886 25.484 81.1646 25.412L80.0846 22.496H77.9846L76.9406 25.364C76.9166 25.428 76.9046 25.488 76.9046 25.544C76.9046 25.648 76.9326 25.732 76.9886 25.796C77.0446 25.852 77.1046 25.88 77.1686 25.88H77.2286V26H75.8966V25.88H75.9566C76.0606 25.88 76.1606 25.82 76.2566 25.7C76.3606 25.572 76.4446 25.424 76.5086 25.256L79.2566 17.936L81.9446 25.184C82.0006 25.344 82.0766 25.5 82.1726 25.652C82.2766 25.804 82.4086 25.88 82.5686 25.88H82.6286V26H80.8526V25.88ZM78.1046 22.088H79.9526L79.0286 19.58L78.1046 22.088Z" fill="white"/>
<path d="M43.8464 5.66537C43.8464 7.07771 43.1738 8.39036 42.4598 9.37864C42.1067 9.86754 41.7528 10.264 41.4877 10.5377C41.4513 10.5752 41.4166 10.6104 41.3839 10.6432C41.3512 10.6104 41.3165 10.5752 41.2801 10.5377C41.015 10.264 40.6611 9.86754 40.3079 9.37864C39.594 8.39036 38.9214 7.07771 38.9214 5.66537C38.9214 4.25302 39.594 2.94038 40.3079 1.9521C40.6611 1.4632 41.015 1.06675 41.2801 0.793059C41.3165 0.755493 41.3512 0.720292 41.3839 0.687535C41.4166 0.720292 41.4513 0.755493 41.4877 0.793059C41.7528 1.06675 42.1067 1.4632 42.4598 1.9521C43.1738 2.94038 43.8464 4.25302 43.8464 5.66537Z" stroke="white"/>
<path d="M40.1073 5.66985C40.9636 6.67066 41.3085 8.14469 41.4249 9.43943C41.4823 10.0775 41.4822 10.6501 41.4676 11.0629C41.4647 11.1439 41.4613 11.2187 41.4577 11.2863C41.3998 11.2906 41.3359 11.2946 41.2665 11.2979C40.9133 11.3149 40.4234 11.315 39.8774 11.248C38.7695 11.112 37.5082 10.7089 36.6518 9.70812C35.7955 8.70731 35.4506 7.23328 35.3342 5.93854C35.2768 5.30044 35.2769 4.72789 35.2915 4.3151C35.2944 4.23403 35.2978 4.15929 35.3014 4.09164C35.3593 4.0874 35.4232 4.08342 35.4926 4.08007C35.8458 4.06304 36.3357 4.06292 36.8818 4.12997C37.9896 4.26601 39.2509 4.66904 40.1073 5.66985Z" stroke="white"/>
<path d="M43.4826 5.66985C42.6262 6.67066 42.2814 8.14469 42.1649 9.43943C42.1076 10.0775 42.1077 10.6501 42.1223 11.0629C42.1251 11.1439 42.1285 11.2187 42.1322 11.2863C42.19 11.2906 42.254 11.2946 42.3234 11.2979C42.6766 11.3149 43.1665 11.315 43.7125 11.248C44.8204 11.112 46.0816 10.7089 46.938 9.70812C47.7944 8.70731 48.1392 7.23328 48.2556 5.93854C48.313 5.30044 48.3129 4.72789 48.2983 4.3151C48.2955 4.23403 48.2921 4.15929 48.2884 4.09164C48.2305 4.0874 48.1666 4.08342 48.0972 4.08007C47.744 4.06304 47.2541 4.06292 46.7081 4.12997C45.6002 4.26601 44.3389 4.66904 43.4826 5.66985Z" stroke="white"/>
<path d="M28.3583 8.08252H0" stroke="white"/>
<path d="M82.9999 8.08332L54.6416 8.08331" stroke="white"/>
</svg>

<svg width="96" height="29" fill="none" xmlns="http://www.w3.org/2000/svg"><path d="M1.54 25.88h.06a.218.218 0 00.156-.072.64.64 0 00.12-.168.648.648 0 00.084-.204c.016-.08.024-.152.024-.216v-6.384a.897.897 0 00-.024-.192.648.648 0 00-.084-.204.4.4 0 00-.132-.168.23.23 0 00-.168-.072h-.06v-.12h1.968c.744 0 1.324.164 1.74.492.424.328.636.764.636 1.308 0 .232-.04.44-.12.624-.08.184-.184.348-.312.492-.12.144-.252.268-.396.372-.144.096-.28.176-.408.24.336.064.616.172.84.324a2 2 0 01.54.528c.144.192.244.4.3.624.056.224.084.444.084.66 0 .416-.076.768-.228 1.056a2.05 2.05 0 01-.612.696 2.5 2.5 0 01-.864.384c-.32.08-.652.12-.996.12H1.54v-.12zm4.032-2.064c-.064-.616-.272-1.092-.624-1.428-.352-.336-.848-.504-1.488-.504h-.672v3.72h.696c.648 0 1.156-.144 1.524-.432.376-.296.564-.704.564-1.224v-.132zm-.492-3.828c-.024-.464-.188-.832-.492-1.104-.296-.272-.696-.408-1.2-.408h-.6V21.5h.624c.336 0 .608-.044.816-.132.216-.088.388-.2.516-.336.128-.144.216-.3.264-.468.048-.168.072-.332.072-.492v-.084zm3.051 5.892h.06c.064 0 .12-.02.168-.06a.64.64 0 00.12-.168.648.648 0 00.084-.204.646.646 0 00.036-.204v-6.42a.616.616 0 00-.036-.192.648.648 0 00-.084-.204.477.477 0 00-.12-.156.23.23 0 00-.168-.072h-.06v-.12h4.62v1.116h-.12a.78.78 0 00-.216-.48c-.128-.144-.328-.216-.6-.216H9.403v3.036h1.992a.642.642 0 00.456-.168.511.511 0 00.192-.396h.12v1.5h-.12a.477.477 0 00-.18-.372.689.689 0 00-.468-.156H9.403v3.636h2.628a.716.716 0 00.396-.108 1.05 1.05 0 00.444-.576c.04-.12.06-.22.06-.3h.12V26h-4.92v-.12zm10.37-7.488c-.592 0-1.108.108-1.548.324a3.193 3.193 0 00-1.08.828 3.43 3.43 0 00-.648 1.14 4.108 4.108 0 00-.204 1.26c0 .472.092.936.276 1.392.184.448.436.848.756 1.2.328.344.708.624 1.14.84a3.117 3.117 0 001.908.264c.2-.032.396-.092.588-.18.192-.096.368-.228.528-.396a1.62 1.62 0 00.384-.66h.12v1.332c-.12 0-.248.016-.384.048l-.432.108c-.208.056-.44.108-.696.156a4.165 4.165 0 01-.792.072c-.696 0-1.308-.12-1.836-.36a4.019 4.019 0 01-1.32-.936 3.878 3.878 0 01-.792-1.296 4.323 4.323 0 01-.264-1.476c0-.496.088-.988.264-1.476a3.76 3.76 0 01.804-1.308c.36-.392.812-.708 1.356-.948s1.184-.36 1.92-.36c.264 0 .5.024.708.072.216.048.408.096.576.144.12.04.228.072.324.096.104.016.204.024.3.024v1.332h-.12a1.383 1.383 0 00-.72-.996 1.79 1.79 0 00-.552-.18c-.192-.04-.38-.06-.564-.06zm8.76 7.488h.06c.056 0 .108-.02.156-.06a.64.64 0 00.12-.168.804.804 0 00.084-.216c.016-.08.024-.152.024-.216v-3.264h-3.84v3.264c0 .064.008.136.024.216a.882.882 0 00.18.372.23.23 0 00.168.072h.06V26h-1.68v-.12h.06c.056 0 .108-.02.156-.06a.64.64 0 00.12-.168.804.804 0 00.084-.216c.016-.08.024-.152.024-.216v-6.396a.897.897 0 00-.024-.192.882.882 0 00-.072-.204.477.477 0 00-.12-.156.23.23 0 00-.168-.072h-.06v-.12h1.68v.12h-.06a.23.23 0 00-.168.072.477.477 0 00-.12.156 1.519 1.519 0 00-.06.204.897.897 0 00-.024.192v2.712h3.84v-2.712a.897.897 0 00-.024-.192.882.882 0 00-.072-.204.477.477 0 00-.12-.156.23.23 0 00-.168-.072h-.06v-.12h1.68v.12h-.06a.23.23 0 00-.168.072.477.477 0 00-.12.156 1.519 1.519 0 00-.06.204.897.897 0 00-.024.192v6.396c0 .064.008.136.024.216.024.072.052.14.084.204.032.064.068.12.108.168.048.048.1.072.156.072h.06V26h-1.68v-.12zm7.981 0h.06c.192 0 .288-.088.288-.264a.646.646 0 00-.036-.204l-1.08-2.916h-2.1l-1.044 2.868a.514.514 0 00-.036.18c0 .104.028.188.084.252a.252.252 0 00.18.084h.06V26h-1.332v-.12h.06c.104 0 .204-.06.3-.18.104-.128.188-.276.252-.444l2.748-7.32 2.688 7.248c.056.16.132.316.228.468.104.152.236.228.396.228h.06V26h-1.776v-.12zm-2.748-3.792h1.848l-.924-2.508-.924 2.508zm9.8 3.792h.06a.218.218 0 00.156-.072.64.64 0 00.12-.168.648.648 0 00.084-.204c.016-.08.024-.152.024-.216v-6.384a.897.897 0 00-.024-.192.648.648 0 00-.084-.204.4.4 0 00-.132-.168.23.23 0 00-.168-.072h-.06v-.12h1.968c.744 0 1.324.164 1.74.492.424.328.636.764.636 1.308 0 .232-.04.44-.12.624-.08.184-.184.348-.312.492-.12.144-.252.268-.396.372-.144.096-.28.176-.408.24.336.064.616.172.84.324a2 2 0 01.54.528c.144.192.244.4.3.624.056.224.084.444.084.66 0 .416-.076.768-.228 1.056a2.05 2.05 0 01-.612.696 2.5 2.5 0 01-.864.384c-.32.08-.652.12-.996.12h-2.148v-.12zm4.032-2.064c-.064-.616-.272-1.092-.624-1.428-.352-.336-.848-.504-1.488-.504h-.672v3.72h.696c.648 0 1.156-.144 1.524-.432.376-.296.564-.704.564-1.224v-.132zm-.492-3.828c-.024-.464-.188-.832-.492-1.104-.296-.272-.696-.408-1.2-.408h-.6V21.5h.624c.336 0 .608-.044.816-.132.216-.088.388-.2.516-.336.128-.144.216-.3.264-.468.048-.168.072-.332.072-.492v-.084zm6.853-1.596c-.592 0-1.108.108-1.548.324a3.193 3.193 0 00-1.08.828 3.43 3.43 0 00-.648 1.14 4.108 4.108 0 00-.204 1.26c0 .472.092.936.276 1.392.184.448.436.848.756 1.2.328.344.708.624 1.14.84a3.117 3.117 0 001.908.264c.2-.032.396-.092.588-.18.192-.096.368-.228.528-.396a1.62 1.62 0 00.384-.66h.12v1.332c-.12 0-.248.016-.384.048l-.432.108c-.208.056-.44.108-.696.156a4.165 4.165 0 01-.792.072c-.696 0-1.308-.12-1.836-.36a4.019 4.019 0 01-1.32-.936 3.878 3.878 0 01-.792-1.296 4.323 4.323 0 01-.264-1.476c0-.496.088-.988.264-1.476a3.76 3.76 0 01.804-1.308c.36-.392.812-.708 1.356-.948s1.184-.36 1.92-.36c.264 0 .5.024.708.072.216.048.408.096.576.144.12.04.228.072.324.096.104.016.204.024.3.024v1.332h-.12a1.383 1.383 0 00-.72-.996 1.79 1.79 0 00-.552-.18c-.192-.04-.38-.06-.564-.06zm3.972 7.488h.06c.064 0 .12-.02.168-.06a.64.64 0 00.12-.168.648.648 0 00.084-.204.646.646 0 00.036-.204v-6.42a.616.616 0 00-.036-.192.648.648 0 00-.084-.204.477.477 0 00-.12-.156.23.23 0 00-.168-.072h-.06v-.12h4.62v1.116h-.12a.78.78 0 00-.216-.48c-.128-.144-.328-.216-.6-.216h-2.412v3.036h1.992a.642.642 0 00.456-.168.511.511 0 00.192-.396h.12v1.5h-.12a.477.477 0 00-.18-.372.689.689 0 00-.468-.156h-1.992v3.636h2.628a.716.716 0 00.396-.108 1.05 1.05 0 00.444-.576c.04-.12.06-.22.06-.3h.12V26h-4.92v-.12zm8.213 0h.06V26h-1.728v-.12h.06c.064 0 .12-.02.168-.06a.64.64 0 00.12-.168.648.648 0 00.084-.204.942.942 0 00.024-.204v-6.42a.897.897 0 00-.024-.192.648.648 0 00-.084-.204.477.477 0 00-.12-.156.23.23 0 00-.168-.072h-.06v-.12h4.62v1.272h-.12c0-.288-.064-.5-.192-.636-.12-.144-.312-.216-.576-.216h-2.46v6.744a.942.942 0 00.096.408c.04.064.084.12.132.168.048.04.104.06.168.06zm9.701-.3v1.5h-.12a1.285 1.285 0 00-.084-.348 1.345 1.345 0 00-.204-.36 1.134 1.134 0 00-.288-.264.674.674 0 00-.372-.108h-5.532a.674.674 0 00-.372.108 1.64 1.64 0 00-.3.276 1.99 1.99 0 00-.204.36c-.048.128-.076.24-.084.336h-.12v-1.5h.528c.256 0 .436-.148.54-.444l2.76-7.236 2.784 7.2c.056.12.132.232.228.336a.46.46 0 00.336.144h.504zm-6.348 0h4.62l-2.316-5.964-2.304 5.964zm12.628.3h.06c.192 0 .288-.088.288-.264a.646.646 0 00-.036-.204l-1.08-2.916h-2.1l-1.044 2.868a.514.514 0 00-.036.18c0 .104.028.188.084.252a.252.252 0 00.18.084h.06V26h-1.332v-.12h.06c.104 0 .204-.06.3-.18.104-.128.188-.276.252-.444l2.748-7.32 2.688 7.248c.056.16.132.316.228.468.104.152.236.228.396.228h.06V26h-1.776v-.12zm-2.748-3.792h1.848l-.924-2.508-.924 2.508z" fill="#fff"/><path d="M43.846 5.665c0 1.413-.672 2.725-1.386 3.714a10.648 10.648 0 01-1.076 1.264 10.659 10.659 0 01-1.076-1.265c-.714-.988-1.387-2.3-1.387-3.713 0-1.412.673-2.725 1.387-3.713A10.658 10.658 0 0141.384.688l.104.105c.265.274.619.67.972 1.16.714.987 1.386 2.3 1.386 3.712z" stroke="#fff"/><path d="M40.107 5.67c.857 1 1.202 2.475 1.318 3.77a13.176 13.176 0 01.033 1.846 8.283 8.283 0 01-1.58-.038c-1.108-.136-2.37-.54-3.226-1.54-.857-1-1.201-2.475-1.318-3.77a13.176 13.176 0 01-.033-1.846 8.276 8.276 0 011.58.038c1.109.136 2.37.539 3.226 1.54zm3.376 0c-.857 1-1.202 2.475-1.318 3.77a13.193 13.193 0 00-.033 1.846 8.283 8.283 0 001.58-.038c1.108-.136 2.37-.54 3.226-1.54.856-1 1.201-2.475 1.318-3.77a13.176 13.176 0 00.032-1.846 8.274 8.274 0 00-1.58.038c-1.108.136-2.37.539-3.225 1.54zM28.358 8.083H0m83 0H54.642" stroke="#fff"/></svg>
